public/assets/routes_avatar/fixedAssetCard.svg

<?xml version="1.0" encoding="UTF-8"?>
<svg width="60px" height="60px" viewBox="0 0 60 60" version="1.1" xmlns="http://www.w3.org/2000/svg" xmlns:xlink="http://www.w3.org/1999/xlink">
    <!-- Generator: Sketch 49.3 (51167) - http://www.bohemiancoding.com/sketch -->
    <title>业务报表-固定资产卡片</title>
    <desc>Created with Sketch.</desc>
    <defs>
        <path d="M24.2305201,9.50859375 L15.5621916,6.06328125 C15.5330489,6.05273438 15.5039062,6.0421875 15.4747636,6.03515625 L15.4747636,2.26640625 C15.4747636,1.2609375 14.7202919,0.4453125 13.7942023,0.4453125 C13.693822,0.4453125 13.5902035,0.462890625 13.4930613,0.498046875 L0.731805099,4.99804688 C0.330283717,5.13867188 0.0615234375,5.54296875 0.0615234375,6 L0.0615234375,27.7335938 C0.0615234375,28.7390625 0.815995066,29.5546875 1.7420847,29.5546875 L23.1749075,29.5546875 C24.1107113,29.5546875 24.8684211,28.7074219 24.8684211,27.6632813 L24.8684211,10.5 C24.8684211,10.0570313 24.6126131,9.66328125 24.2305201,9.50859375 Z M13.5351562,7.89140625 L13.5351562,27.4453125 L2.00760691,27.4453125 L2.00760691,6.76640625 L13.5351562,2.70234375 L13.5351562,7.89140625 Z M22.9255757,27.4453125 L15.4780016,27.4453125 L15.4780016,8.278125 L22.9255757,11.2382813 L22.9255757,27.4453125 Z" id="path-1"></path>
        <path d="M4.01521382,12.75 L6.60567434,12.75 C6.74814967,12.75 6.86472039,12.6234375 6.86472039,12.46875 L6.86472039,10.78125 C6.86472039,10.6265625 6.74814967,10.5 6.60567434,10.5 L4.01521382,10.5 C3.87273849,10.5 3.75616776,10.6265625 3.75616776,10.78125 L3.75616776,12.46875 C3.75616776,12.6234375 3.87273849,12.75 4.01521382,12.75 Z M8.93708882,12.75 L11.5275493,12.75 C11.6700247,12.75 11.7865954,12.6234375 11.7865954,12.46875 L11.7865954,10.78125 C11.7865954,10.6265625 11.6700247,10.5 11.5275493,10.5 L8.93708882,10.5 C8.79461349,10.5 8.67804276,10.6265625 8.67804276,10.78125 L8.67804276,12.46875 C8.67804276,12.6234375 8.79461349,12.75 8.93708882,12.75 Z M4.01521382,17.25 L6.60567434,17.25 C6.74814967,17.25 6.86472039,17.1234375 6.86472039,16.96875 L6.86472039,15.28125 C6.86472039,15.1265625 6.74814967,15 6.60567434,15 L4.01521382,15 C3.87273849,15 3.75616776,15.1265625 3.75616776,15.28125 L3.75616776,16.96875 C3.75616776,17.1234375 3.87273849,17.25 4.01521382,17.25 Z M8.93708882,17.25 L11.5275493,17.25 C11.6700247,17.25 11.7865954,17.1234375 11.7865954,16.96875 L11.7865954,15.28125 C11.7865954,15.1265625 11.6700247,15 11.5275493,15 L8.93708882,15 C8.79461349,15 8.67804276,15.1265625 8.67804276,15.28125 L8.67804276,16.96875 C8.67804276,17.1234375 8.79461349,17.25 8.93708882,17.25 Z M4.01521382,21.75 L6.60567434,21.75 C6.74814967,21.75 6.86472039,21.6234375 6.86472039,21.46875 L6.86472039,19.78125 C6.86472039,19.6265625 6.74814967,19.5 6.60567434,19.5 L4.01521382,19.5 C3.87273849,19.5 3.75616776,19.6265625 3.75616776,19.78125 L3.75616776,21.46875 C3.75616776,21.6234375 3.87273849,21.75 4.01521382,21.75 Z M8.93708882,21.75 L11.5275493,21.75 C11.6700247,21.75 11.7865954,21.6234375 11.7865954,21.46875 L11.7865954,19.78125 C11.7865954,19.6265625 11.6700247,19.5 11.5275493,19.5 L8.93708882,19.5 C8.79461349,19.5 8.67804276,19.6265625 8.67804276,19.78125 L8.67804276,21.46875 C8.67804276,21.6234375 8.79461349,21.75 8.93708882,21.75 Z M18.4246505,17.25 L19.9789268,17.25 C20.1214021,17.25 20.2379729,17.1234375 20.2379729,16.96875 L20.2379729,15.28125 C20.2379729,15.1265625 20.1214021,15 19.9789268,15 L18.4246505,15 C18.2821752,15 18.1656044,15.1265625 18.1656044,15.28125 L18.1656044,16.96875 C18.1656044,17.1234375 18.2821752,17.25 18.4246505,17.25 Z M18.4246505,21.75 L19.9789268,21.75 C20.1214021,21.75 20.2379729,21.6234375 20.2379729,21.46875 L20.2379729,19.78125 C20.2379729,19.6265625 20.1214021,19.5 19.9789268,19.5 L18.4246505,19.5 C18.2821752,19.5 18.1656044,19.6265625 18.1656044,19.78125 L18.1656044,21.46875 C18.1656044,21.6234375 18.2821752,21.75 18.4246505,21.75 Z" id="path-2"></path>
    </defs>
    <g id="icon" stroke="none" stroke-width="1" fill="none" fill-rule="evenodd">
        <g id="业务报表-固定资产卡片">
            <circle id="Oval-Copy" fill="#F79E45" cx="30" cy="30" r="30"></circle>
            <g id="Group-24" transform="translate(15.000000, 15.000000)">
                <g id="Group-22" transform="translate(1.875000, 0.000000)" fill-rule="nonzero">
                    <g id="Shape">
                        <use fill="#FFFFFF" fill-rule="evenodd" xlink:href="#path-1"></use>
                        <path stroke="#F79E45" stroke-width="0.2" d="M24.1932807,9.60140178 L15.5281612,6.15731278 C15.4860755,6.14213848 15.4707828,6.1370652 15.4513096,6.1323669 L15.3747636,6.03515625 L15.3747636,2.26640625 C15.3747636,1.31513557 14.6638252,0.5453125 13.7942023,0.5453125 C13.7041571,0.5453125 13.6121497,0.561295501 13.5263172,0.592355119 L0.764859514,5.09242593 C0.405339139,5.2183409 0.161523437,5.58346392 0.161523437,6 L0.161523437,27.7335938 C0.161523437,28.6848644 0.872461797,29.4546875 1.7420847,29.4546875 L23.1749075,29.4546875 C24.0525456,29.4546875 24.7684211,28.6548632 24.7684211,27.6632813 L24.7684211,10.5 C24.7684211,10.0984752 24.5378862,9.74105894 24.1932807,9.60140178 Z M13.6351562,2.70234375 L13.6351562,27.4453125 L13.5351562,27.5453125 L2.00760691,27.5453125 L1.90760691,27.4453125 L1.90760691,6.76640625 L1.97435752,6.67209571 L13.5019069,2.60803321 L13.6351562,2.70234375 Z M22.9255757,27.5453125 L15.4780016,27.5453125 L15.3780016,27.4453125 L15.3780016,8.278125 L15.5149376,8.18519635 L22.9625116,11.1453526 L23.0255757,11.2382813 L23.0255757,27.4453125 L22.9255757,27.5453125 Z"></path>
                    </g>
                    <g id="Shape">
                        <use fill="#FFFFFF" fill-rule="evenodd" xlink:href="#path-2"></use>
                        <path stroke="#F79E45" stroke-width="0.2" d="M4.01521382,12.65 L6.60567434,12.65 C6.69100102,12.65 6.76472039,12.5699618 6.76472039,12.46875 L6.76472039,10.78125 C6.76472039,10.6800382 6.69100102,10.6 6.60567434,10.6 L4.01521382,10.6 C3.92988714,10.6 3.85616776,10.6800382 3.85616776,10.78125 L3.85616776,12.46875 C3.85616776,12.5699618 3.92988714,12.65 4.01521382,12.65 Z M8.93708882,12.65 L11.5275493,12.65 C11.612876,12.65 11.6865954,12.5699618 11.6865954,12.46875 L11.6865954,10.78125 C11.6865954,10.6800382 11.612876,10.6 11.5275493,10.6 L8.93708882,10.6 C8.85176214,10.6 8.77804276,10.6800382 8.77804276,10.78125 L8.77804276,12.46875 C8.77804276,12.5699618 8.85176214,12.65 8.93708882,12.65 Z M4.01521382,17.15 L6.60567434,17.15 C6.69100102,17.15 6.76472039,17.0699618 6.76472039,16.96875 L6.76472039,15.28125 C6.76472039,15.1800382 6.69100102,15.1 6.60567434,15.1 L4.01521382,15.1 C3.92988714,15.1 3.85616776,15.1800382 3.85616776,15.28125 L3.85616776,16.96875 C3.85616776,17.0699618 3.92988714,17.15 4.01521382,17.15 Z M8.93708882,17.15 L11.5275493,17.15 C11.612876,17.15 11.6865954,17.0699618 11.6865954,16.96875 L11.6865954,15.28125 C11.6865954,15.1800382 11.612876,15.1 11.5275493,15.1 L8.93708882,15.1 C8.85176214,15.1 8.77804276,15.1800382 8.77804276,15.28125 L8.77804276,16.96875 C8.77804276,17.0699618 8.85176214,17.15 8.93708882,17.15 Z M4.01521382,21.65 L6.60567434,21.65 C6.69100102,21.65 6.76472039,21.5699618 6.76472039,21.46875 L6.76472039,19.78125 C6.76472039,19.6800382 6.69100102,19.6 6.60567434,19.6 L4.01521382,19.6 C3.92988714,19.6 3.85616776,19.6800382 3.85616776,19.78125 L3.85616776,21.46875 C3.85616776,21.5699618 3.92988714,21.65 4.01521382,21.65 Z M8.93708882,21.65 L11.5275493,21.65 C11.612876,21.65 11.6865954,21.5699618 11.6865954,21.46875 L11.6865954,19.78125 C11.6865954,19.6800382 11.612876,19.6 11.5275493,19.6 L8.93708882,19.6 C8.85176214,19.6 8.77804276,19.6800382 8.77804276,19.78125 L8.77804276,21.46875 C8.77804276,21.5699618 8.85176214,21.65 8.93708882,21.65 Z M18.4246505,17.15 L19.9789268,17.15 C20.0642535,17.15 20.1379729,17.0699618 20.1379729,16.96875 L20.1379729,15.28125 C20.1379729,15.1800382 20.0642535,15.1 19.9789268,15.1 L18.4246505,15.1 C18.3393238,15.1 18.2656044,15.1800382 18.2656044,15.28125 L18.2656044,16.96875 C18.2656044,17.0699618 18.3393238,17.15 18.4246505,17.15 Z M18.4246505,21.65 L19.9789268,21.65 C20.0642535,21.65 20.1379729,21.5699618 20.1379729,21.46875 L20.1379729,19.78125 C20.1379729,19.6800382 20.0642535,19.6 19.9789268,19.6 L18.4246505,19.6 C18.3393238,19.6 18.2656044,19.6800382 18.2656044,19.78125 L18.2656044,21.46875 C18.2656044,21.5699618 18.3393238,21.65 18.4246505,21.65 Z"></path>
                    </g>
                </g>
                <rect id="Rectangle-17" fill="#FFFFFF" x="0" y="27.9310345" width="30" height="1.55172414" rx="0.775862069"></rect>
            </g>
        </g>
    </g>
</svg>

<svg width="60" height="60" xmlns="http://www.w3.org/2000/svg" xmlns:xlink="http://www.w3.org/1999/xlink"><defs><path d="M24.23 9.509l-8.668-3.446c-.029-.01-.058-.02-.087-.028V2.266c0-1.005-.755-1.82-1.68-1.82-.101 0-.205.017-.302.052L.732 4.998C.33 5.138.062 5.543.062 6v21.734c0 1.005.754 1.82 1.68 1.82h21.433c.936 0 1.693-.847 1.693-1.89V10.5c0-.443-.255-.837-.637-.991zM13.536 7.89v19.554H2.008V6.766l11.527-4.064v5.19zm9.39 19.554h-7.447V8.278l7.448 2.96v16.207z" id="a"/><path d="M4.015 12.75h2.59c.143 0 .26-.127.26-.281V10.78c0-.154-.117-.281-.26-.281h-2.59c-.142 0-.259.127-.259.281v1.688c0 .154.117.281.26.281zm4.922 0h2.59c.143 0 .26-.127.26-.281V10.78c0-.154-.117-.281-.26-.281h-2.59c-.142 0-.259.127-.259.281v1.688c0 .154.117.281.26.281zm-4.922 4.5h2.59c.143 0 .26-.127.26-.281V15.28c0-.154-.117-.281-.26-.281h-2.59c-.142 0-.259.127-.259.281v1.688c0 .154.117.281.26.281zm4.922 0h2.59c.143 0 .26-.127.26-.281V15.28c0-.154-.117-.281-.26-.281h-2.59c-.142 0-.259.127-.259.281v1.688c0 .154.117.281.26.281zm-4.922 4.5h2.59c.143 0 .26-.127.26-.281V19.78c0-.154-.117-.281-.26-.281h-2.59c-.142 0-.259.127-.259.281v1.688c0 .154.117.281.26.281zm4.922 0h2.59c.143 0 .26-.127.26-.281V19.78c0-.154-.117-.281-.26-.281h-2.59c-.142 0-.259.127-.259.281v1.688c0 .154.117.281.26.281zm9.488-4.5h1.554c.142 0 .259-.127.259-.281V15.28c0-.154-.117-.281-.26-.281h-1.553c-.143 0-.26.127-.26.281v1.688c0 .154.117.281.26.281zm0 4.5h1.554c.142 0 .259-.127.259-.281V19.78c0-.154-.117-.281-.26-.281h-1.553c-.143 0-.26.127-.26.281v1.688c0 .154.117.281.26.281z" id="b"/></defs><g fill="none" fill-rule="evenodd"><circle fill="#F79E45" cx="30" cy="30" r="30"/><g transform="translate(15 15)"><g fill-rule="nonzero"><g transform="translate(1.875)"><use fill="#FFF" fill-rule="evenodd" xlink:href="#a"/><path stroke="#F79E45" stroke-width=".2" d="M24.193 9.601l-8.665-3.444a.692.692 0 0 0-.077-.025l-.076-.097V2.266c0-.95-.711-1.72-1.58-1.72a.793.793 0 0 0-.269.046L.765 5.092c-.36.126-.603.491-.603.908v21.734c0 .95.71 1.72 1.58 1.72h21.433c.878 0 1.593-.8 1.593-1.79V10.5c0-.402-.23-.759-.575-.899zM13.635 2.702v24.743l-.1.1H2.008l-.1-.1V6.766l.066-.094 11.528-4.064.133.094zm9.29 24.843h-7.447l-.1-.1V8.278l.137-.093 7.448 2.96.063.093v16.207l-.1.1z"/></g><g transform="translate(1.875)"><use fill="#FFF" fill-rule="evenodd" xlink:href="#b"/><path stroke="#F79E45" stroke-width=".2" d="M4.015 12.65h2.59c.086 0 .16-.08.16-.181V10.78c0-.101-.074-.181-.16-.181h-2.59c-.085 0-.159.08-.159.181v1.688c0 .101.074.181.16.181zm4.922 0h2.59c.086 0 .16-.08.16-.181V10.78c0-.101-.074-.181-.16-.181h-2.59c-.085 0-.159.08-.159.181v1.688c0 .101.074.181.16.181zm-4.922 4.5h2.59c.086 0 .16-.08.16-.181V15.28c0-.101-.074-.181-.16-.181h-2.59c-.085 0-.159.08-.159.181v1.688c0 .101.074.181.16.181zm4.922 0h2.59c.086 0 .16-.08.16-.181V15.28c0-.101-.074-.181-.16-.181h-2.59c-.085 0-.159.08-.159.181v1.688c0 .101.074.181.16.181zm-4.922 4.5h2.59c.086 0 .16-.08.16-.181V19.78c0-.101-.074-.181-.16-.181h-2.59c-.085 0-.159.08-.159.181v1.688c0 .101.074.181.16.181zm4.922 0h2.59c.086 0 .16-.08.16-.181V19.78c0-.101-.074-.181-.16-.181h-2.59c-.085 0-.159.08-.159.181v1.688c0 .101.074.181.16.181zm9.488-4.5h1.554c.085 0 .159-.08.159-.181V15.28c0-.101-.074-.181-.16-.181h-1.553c-.086 0-.16.08-.16.181v1.688c0 .101.074.181.16.181zm0 4.5h1.554c.085 0 .159-.08.159-.181V19.78c0-.101-.074-.181-.16-.181h-1.553c-.086 0-.16.08-.16.181v1.688c0 .101.074.181.16.181z"/></g></g><rect fill="#FFF" y="27.931" width="30" height="1.552" rx=".776"/></g></g></svg>
